cssgg/music.svg

<svg
  width="24"
  height="24"
  viewBox="0 0 24 24"
  fill="none"
  xmlns="http://www.w3.org/2000/svg"
>
  <path
    fill-rule="evenodd"
    clip-rule="evenodd"
    d="M22 6.00086C22 3.54932 19.8148 1.6746 17.3918 2.04737L10.3918 3.1243C8.44044 3.4245 7 5.1035 7 7.07778V15.8407C6.54537 15.6248 6.0368 15.5039 5.5 15.5039C3.567 15.5039 2 17.0709 2 19.0039C2 20.9369 3.567 22.5039 5.5 22.5039C7.43296 22.5039 8.99994 20.937 9 19.004V7.07778C9 6.09064 9.72022 5.25114 10.6959 5.10104L17.6959 4.02412C18.9074 3.83773 20 4.77509 20 6.00086V12.8407C19.5454 12.6248 19.0368 12.5039 18.5 12.5039C16.567 12.5039 15 14.0709 15 16.0039C15 17.9369 16.567 19.5039 18.5 19.5039C20.433 19.5039 21.9999 17.937 22 16.004V6.00086ZM20 16.0039C20 15.1755 19.3284 14.5039 18.5 14.5039C17.6716 14.5039 17 15.1755 17 16.0039C17 16.8323 17.6716 17.5039 18.5 17.5039C19.3284 17.5039 19.9999 16.8323 20 16.0039ZM7 19.0039C7 18.1755 6.32843 17.5039 5.5 17.5039C4.67157 17.5039 4 18.1755 4 19.0039C4 19.8323 4.67157 20.5039 5.5 20.5039C6.32839 20.5039 6.99994 19.8323 7 19.0039Z"
    fill="currentColor"
  />
</svg>

<svg viewBox="0 0 24 24" xmlns="http://www.w3.org/2000/svg"><path fill-rule="evenodd" d="M22 6c0-2.46-2.19-4.33-4.61-3.96l-7 1.07c-1.96.3-3.4 1.97-3.4 3.95v8.76c-.46-.22-.97-.34-1.5-.34 -1.94 0-3.5 1.56-3.5 3.5 0 1.93 1.56 3.5 3.5 3.5 1.93 0 3.49-1.57 3.5-3.5V7.05c0-.99.72-1.83 1.69-1.98l7-1.08c1.21-.19 2.3.75 2.3 1.97v6.83c-.46-.22-.97-.34-1.5-.34 -1.94 0-3.5 1.56-3.5 3.5 0 1.93 1.56 3.5 3.5 3.5 1.93 0 3.49-1.57 3.5-3.5V5.94Zm-2 10c0-.83-.68-1.5-1.5-1.5 -.83 0-1.5.67-1.5 1.5 0 .82.67 1.5 1.5 1.5 .82 0 1.49-.68 1.5-1.5ZM7 19c0-.83-.68-1.5-1.5-1.5 -.83 0-1.5.67-1.5 1.5 0 .82.67 1.5 1.5 1.5 .82 0 1.49-.68 1.5-1.5Z"/></svg>
